X: 3599
T:Mooney's Jig
R:Jig
C:Trad., arr. Chris Layer
S:Hamish Moore's School of Piping
Z:Transcribed by A. Upton
M:6/8
L:1/8
K:D
{g}Ad{e}d {c}deg|f{g}f{e}f ged|Ad{e}d {c}dea|ged {gd}B3|!
{g}Ad{e}d {c}deg|f{g}f{e}f ged|f{g}f{e}f {a}gfe|{g}ded {g}B3:|!
|:agf {a}gfe|{g}fag {fg}fed|agf {a}gfe|{g}ded {g}d3|!
agf {a}gfe|{g}fag {fg}fed|{fe}ede {a}gfe|{g}ded {g}B3:|!
